dist/svgs/core-ui-icons/free/cil-fax.svg

<svg xmlns="http://www.w3.org/2000/svg" viewBox="0 0 512 512"><path d="M487.944 233.654L424 176.815V89.373L350.627 16H152v128H80a24.028 24.028 0 00-24 24v304a24.028 24.028 0 0024 24h416V251.593a24.024 24.024 0 00-8.056-17.939zM152 464H88V176h64zM328 48h9.373L392 102.627V112h-64zm-144 0h112v96h96v72H184zm280 416H184V248h240v-28.371l40 35.557z"/><path d="M232 344h32v32h-32zm64 0h32v32h-32zm-64 64h32v32h-32zm64 0h32v32h-32zm64-64h32v32h-32zm0 64h32v32h-32zM232 280h160v32H232z"/></svg>

<svg xmlns="http://www.w3.org/2000/svg" viewBox="0 0 512 512">
  <path fill="var(--ci-primary-color, currentColor)" d="M487.944,233.654,424,176.815V89.373L350.627,16H152V144H80a24.028,24.028,0,0,0-24,24V472a24.028,24.028,0,0,0,24,24H496V251.593A24.024,24.024,0,0,0,487.944,233.654ZM152,464H88V176h64ZM328,48h9.373L392,102.627V112H328ZM184,48H296v96h96v72H184ZM464,464H184V248H424V219.629l40,35.557Z" class="ci-primary"/>
  <rect width="32" height="32" x="232" y="344" fill="var(--ci-primary-color, currentColor)" class="ci-primary"/>
  <rect width="32" height="32" x="296" y="344" fill="var(--ci-primary-color, currentColor)" class="ci-primary"/>
  <rect width="32" height="32" x="232" y="408" fill="var(--ci-primary-color, currentColor)" class="ci-primary"/>
  <rect width="32" height="32" x="296" y="408" fill="var(--ci-primary-color, currentColor)" class="ci-primary"/>
  <rect width="32" height="32" x="360" y="344" fill="var(--ci-primary-color, currentColor)" class="ci-primary"/>
  <rect width="32" height="32" x="360" y="408" fill="var(--ci-primary-color, currentColor)" class="ci-primary"/>
  <rect width="160" height="32" x="232" y="280" fill="var(--ci-primary-color, currentColor)" class="ci-primary"/>
</svg>
